public/build/img/sistema/logo-negro.svg

<svg width="393" height="120" viewBox="0 0 393 120" fill="none" xmlns="http://www.w3.org/2000/svg">
<path d="M116.664 119.859C114.325 119.859 110.813 119.646 106.775 119.26C101.954 118.799 96.5939 118.107 91.2732 117.261C84.837 116.236 78.4547 114.992 72.3035 113.561C65.1262 111.892 58.2961 109.975 52.0029 107.862C36.7238 102.734 24.5959 96.4821 15.9562 89.2797C13.5144 87.2442 11.3251 85.1056 9.44886 82.9233C7.48595 80.6402 5.81207 78.2466 4.47377 75.8092C3.07723 73.2658 2.00756 70.6043 1.29448 67.8988C0.552008 65.0817 0.175537 62.1387 0.175537 59.1515C0.175537 56.1011 0.590775 53.1099 1.40975 50.2609C2.19797 47.5189 3.38131 44.8352 4.92684 42.2843C6.41166 39.8337 8.27033 37.4404 10.4512 35.1709C12.5416 32.9955 14.9832 30.8765 17.7082 28.8727C27.4275 21.7255 41.1595 15.6847 58.5228 10.9181C65.7895 8.92325 73.722 7.14795 82.1001 5.64152C89.3792 4.33269 97.0212 3.22068 104.814 2.33639C111.436 1.58481 118.037 1.01017 124.431 0.62841C131.157 0.226858 135.913 0.142578 138.718 0.142578C140.005 0.142578 141.159 0.160291 142.148 0.195264C142.858 0.22036 143.388 0.255768 143.767 0.303455C144.111 0.346594 144.255 0.39129 144.313 0.416958C144.253 0.461136 144.076 0.557337 143.567 0.711039C143.089 0.855571 142.399 1.02796 141.457 1.23804C139.653 1.64085 137.13 2.13791 133.935 2.76722C118.874 5.73456 90.8392 11.2579 66.3834 21.0616C36.3601 33.0972 21.137 47.8657 21.137 64.9569C21.137 83.5245 34.0259 97.8276 59.4456 107.469C79.8814 115.22 102.52 117.774 113.399 119.001C115.091 119.192 116.427 119.343 117.394 119.474C117.896 119.543 118.27 119.602 118.538 119.656C118.673 119.683 118.768 119.707 118.836 119.726C118.62 119.779 118.062 119.859 116.664 119.859Z" fill="#0F0D0D"/>
<path d="M138.718 0.283273C135.916 0.283273 131.164 0.367505 124.444 0.768724C118.053 1.15024 111.457 1.72456 104.838 2.47571C97.0502 3.35948 89.4129 4.4708 82.1383 5.77883C73.7664 7.28413 65.84 9.05803 58.5794 11.0512C41.2391 15.8116 27.5278 21.8425 17.8264 28.9764C15.1089 30.9748 12.6742 33.0878 10.5899 35.2567C8.41641 37.5186 6.56415 39.9036 5.08459 42.3456C3.54486 44.8868 2.366 47.5604 1.58078 50.292C0.764847 53.1305 0.351109 56.1109 0.351109 59.1506C0.351109 62.1279 0.726283 65.061 1.46624 67.8684C2.17677 70.5643 3.24268 73.2164 4.63431 75.7509C5.96813 78.1802 7.63652 80.5658 9.59314 82.8417C11.4639 85.0177 13.6472 87.1503 16.0823 89.1803C24.7053 96.3687 36.8134 102.61 52.0703 107.731C58.3574 109.841 65.1812 111.756 72.3521 113.424C78.4985 114.853 84.876 116.097 91.3072 117.121C102.576 118.914 112.163 119.717 116.665 119.717C117.186 119.717 117.587 119.706 117.895 119.689C117.718 119.662 117.51 119.633 117.266 119.6C116.309 119.472 115.014 119.326 113.375 119.141C102.487 117.912 79.8308 115.356 59.3709 107.596C33.8843 97.9295 20.9615 83.5832 20.9615 64.956C20.9615 47.8065 36.2174 32.9953 66.3053 20.9339C90.7786 11.1231 118.826 5.59735 133.894 2.6287C136.996 2.01742 139.447 1.5346 141.239 1.13875C142.172 0.932616 142.866 0.762889 143.362 0.619891C143.581 0.556596 143.744 0.503251 143.865 0.459492C143.804 0.450467 143.734 0.4412 143.652 0.431959C143.29 0.390811 142.781 0.358472 142.141 0.335832C141.154 0.300951 140.003 0.283273 138.718 0.283273ZM138.718 0C140.038 0 141.187 0.0185771 142.156 0.0528268C164.454 0.84114 21.3126 12.5667 21.3126 64.956C21.3126 117.345 124.503 118.299 118.925 119.85C118.576 119.947 117.803 120 116.665 120C99.6064 120 0 108.262 0 59.1506C0 9.03803 109.671 0 138.718 0Z" fill="#707070"/>
<path d="M229.808 119.454C228.466 119.454 227.263 119.437 226.231 119.404C225.5 119.381 224.953 119.347 224.561 119.301C224.217 119.26 224.066 119.217 224 119.191C224.072 119.144 224.272 119.046 224.827 118.889C225.354 118.741 226.114 118.563 227.149 118.347C229.133 117.932 231.9 117.42 235.403 116.772C251.352 113.822 281.04 108.33 306.744 98.8819C338.257 87.2988 354.236 73.2608 354.236 57.1579C354.236 39.5586 340.494 26.1533 313.392 17.3146C291.629 10.217 266.751 8.00266 256.127 7.0571C254.387 6.90216 253.011 6.77977 252.017 6.67129C251.499 6.61487 251.113 6.56523 250.838 6.51954C250.74 6.50337 250.662 6.48863 250.6 6.47552C250.99 6.40291 251.762 6.36328 252.8 6.36328C255.24 6.36328 258.902 6.5644 263.113 6.9296C268.139 7.36549 273.728 8.01876 279.276 8.81881C285.986 9.78658 292.641 10.9627 299.054 12.3144C306.537 13.8915 313.659 15.7032 320.22 17.699C336.151 22.5444 348.796 28.4517 357.803 35.2568C360.349 37.1799 362.631 39.2002 364.587 41.2618C366.633 43.4184 368.377 45.6791 369.772 47.9813C371.228 50.3833 372.342 52.8966 373.085 55.4514C373.859 58.1115 374.251 60.8905 374.251 63.7112C374.251 66.5915 373.819 69.416 372.965 72.106C372.144 74.6953 370.911 77.2297 369.3 79.6386C367.753 81.9533 365.815 84.2139 363.542 86.3577C361.363 88.4128 358.818 90.4148 355.977 92.3079C345.843 99.0611 331.526 104.769 313.422 109.273C305.845 111.158 297.575 112.835 288.84 114.258C281.25 115.495 273.283 116.546 265.158 117.381C258.253 118.091 251.372 118.634 244.705 118.995C237.692 119.375 232.733 119.454 229.808 119.454Z" fill="#0F0D0D"/>
<path d="M229.808 119.312C232.731 119.312 237.685 119.232 244.693 118.853C251.356 118.492 258.234 117.95 265.136 117.24C273.256 116.405 281.22 115.355 288.805 114.119C297.534 112.696 305.799 111.02 313.37 109.136C331.452 104.638 345.749 98.939 355.865 92.1978C358.698 90.3098 361.236 88.3136 363.409 86.2647C365.674 84.1286 367.604 81.8763 369.146 79.5705C370.75 77.1716 371.977 74.6481 372.795 72.07C373.645 69.3914 374.076 66.5788 374.076 63.7103C374.076 60.9004 373.685 58.1323 372.914 55.4829C372.174 52.9383 371.064 50.435 369.615 48.0425C368.225 45.7488 366.486 43.4961 364.448 41.3469C362.498 39.2915 360.222 37.277 357.683 35.3593C348.693 28.5669 336.067 22.6694 320.158 17.8305C313.603 15.8365 306.487 14.0264 299.01 12.4504C292.601 11.0997 285.951 9.9244 279.245 8.95729C267.493 7.26255 257.495 6.50397 252.8 6.50397C252.454 6.50397 252.158 6.50816 251.906 6.51519C251.978 6.52324 252.054 6.53152 252.133 6.54002C253.119 6.64587 254.455 6.7648 256.147 6.91539C266.777 7.86158 291.672 10.0774 313.458 17.1823C340.633 26.0448 354.412 39.4942 354.412 57.1569C354.412 73.3203 338.398 87.4016 306.817 99.0098C281.097 108.464 251.398 113.958 235.442 116.909C232.031 117.54 229.337 118.039 227.367 118.447C226.339 118.66 225.575 118.835 225.03 118.982C224.791 119.047 224.613 119.101 224.48 119.146C224.536 119.154 224.601 119.161 224.673 119.169C225.048 119.209 225.575 119.241 226.238 119.262C227.267 119.295 228.468 119.312 229.808 119.312ZM229.808 119.595C228.432 119.595 227.234 119.577 226.224 119.545C202.977 118.8 354.06 106.654 354.06 57.1569C354.06 7.66036 244.628 7.82749 250.443 6.36195C250.807 6.27026 251.613 6.2207 252.8 6.2207C270.584 6.2207 374.427 17.3103 374.427 63.7103C374.427 111.056 260.091 119.595 229.808 119.595Z" fill="#707070"/>
<path d="M52.7156 45.4787L60.4676 40.7867H74.4756V48.8107H61.0116V56.4947H74.4756V64.4507H60.4676L52.7156 59.8267V45.4787ZM99.5676 61.1867L91.5436 56.4947H77.5356V64.4507H90.9996V72.2027H77.8076V79.8867H91.5436L99.5676 75.2627V61.1867ZM61.2836 67.5107V72.2027H74.4756V79.8867H60.6716L52.7156 75.2627V67.5107H61.2836ZM99.5676 53.4347V45.4787L91.5436 40.7867H77.5356V48.8107H90.9996V53.4347H99.5676ZM109.774 45.4787L117.526 40.7867H131.534V48.4707H118.342V56.4947H131.534V64.2467H118.342V79.8867H109.774V45.4787ZM156.626 45.4787L148.602 40.7867H134.594V48.4707H148.058V56.4947H134.594V64.2467H148.058V79.8867H156.626V45.4787ZM163.298 45.4787L171.254 40.7867H185.33V48.4707H172.138V71.9307H185.058V79.8867H171.254L163.298 75.2627V45.4787ZM201.582 67.2387V71.9307H188.662V79.8867H202.466L210.422 75.2627V67.2387H201.582ZM210.422 53.2307V45.4787L202.466 40.7867H188.39V48.4707H201.582V53.2307H210.422ZM221.271 40.7867H229.839V79.8867H221.271V40.7867ZM242.088 40.7867H249.84L263.848 53.9787V64.2467L250.656 51.5307V79.8867H242.088V40.7867ZM280.372 68.8707V40.7867H288.94V79.8867H280.916L266.908 66.4227V56.4947L280.372 68.8707ZM304.149 40.7867L318.157 64.2467V79.8867L296.397 43.3027L304.149 40.7867ZM335.565 40.7867L321.489 64.2467V79.8867L343.249 43.3027L335.565 40.7867Z" fill="black"/>
</svg>

<svg width="393" height="120" fill="none" xmlns="http://www.w3.org/2000/svg"><path d="M116.664 119.859c-2.339 0-5.851-.213-9.889-.599-4.821-.461-10.181-1.153-15.502-1.999a274.9 274.9 0 01-18.97-3.7c-7.177-1.669-14.007-3.586-20.3-5.699-15.28-5.128-27.407-11.38-36.047-18.582-2.442-2.036-4.63-4.174-6.507-6.357-1.963-2.283-3.637-4.676-4.975-7.114a35.007 35.007 0 01-3.18-7.91A34.337 34.337 0 01.176 59.15c0-3.05.415-6.041 1.234-8.89a33.037 33.037 0 013.517-7.977c1.485-2.45 3.343-4.844 5.524-7.113 2.09-2.175 4.532-4.294 7.257-6.298 9.72-7.148 23.452-13.188 40.815-17.955C65.79 8.923 73.722 7.148 82.1 5.642a355.451 355.451 0 0122.714-3.306A370.74 370.74 0 01124.431.628c6.726-.401 11.482-.485 14.287-.485 1.287 0 2.441.017 3.43.052.71.025 1.24.06 1.619.108.344.044.488.088.546.114-.06.044-.237.14-.746.294-.478.145-1.168.317-2.11.527-1.804.403-4.327.9-7.522 1.53-15.061 2.967-43.096 8.49-67.552 18.294C36.36 33.097 21.137 47.866 21.137 64.957c0 18.568 12.889 32.87 38.309 42.512 20.435 7.751 43.074 10.305 53.953 11.532 1.692.191 3.028.342 3.995.473.502.069.876.128 1.144.182.135.027.23.051.298.07-.216.053-.774.133-2.172.133z" fill="#0F0D0D"/><path d="M138.718.283c-2.802 0-7.554.085-14.274.486a370.52 370.52 0 00-19.606 1.707 355.257 355.257 0 00-22.7 3.303C73.766 7.284 65.84 9.058 58.58 11.05c-17.34 4.76-31.051 10.792-40.753 17.925-2.717 1.999-5.152 4.112-7.236 6.28-2.174 2.263-4.026 4.648-5.505 7.09a32.91 32.91 0 00-3.504 7.946 32.054 32.054 0 00-1.23 8.859c0 2.977.375 5.91 1.115 8.717a34.883 34.883 0 003.168 7.883c1.334 2.43 3.003 4.815 4.96 7.09 1.87 2.177 4.053 4.31 6.488 6.34 8.623 7.188 20.731 13.429 35.988 18.55 6.287 2.11 13.111 4.025 20.282 5.693a275.097 275.097 0 0018.955 3.697c11.269 1.793 20.856 2.596 25.358 2.596.521 0 .922-.011 1.23-.028a38.794 38.794 0 00-.629-.089c-.957-.128-2.252-.274-3.891-.459-10.888-1.229-33.544-3.785-54.004-11.545-25.487-9.666-38.41-24.013-38.41-42.64 0-17.15 15.256-31.96 45.344-44.022 24.474-9.81 52.521-15.337 67.589-18.305 3.102-.612 5.553-1.094 7.345-1.49a36.689 36.689 0 002.123-.52c.219-.062.382-.116.503-.16a6.173 6.173 0 00-.213-.027 20.765 20.765 0 00-1.511-.096 98.608 98.608 0 00-3.423-.053zm0-.283c1.32 0 2.469.019 3.438.053C164.454.84 21.313 12.567 21.313 64.956c0 52.389 103.19 53.343 97.612 54.894-.349.097-1.122.15-2.26.15C99.606 120 0 108.262 0 59.15 0 9.039 109.671 0 138.718 0z" fill="#707070"/><path d="M229.808 119.454a113.8 113.8 0 01-3.577-.05 20.816 20.816 0 01-1.67-.103c-.344-.041-.495-.084-.561-.11.072-.047.272-.145.827-.302a37.497 37.497 0 012.322-.542c1.984-.415 4.751-.927 8.254-1.575 15.949-2.95 45.637-8.442 71.341-17.89 31.513-11.583 47.492-25.621 47.492-41.724 0-17.6-13.742-31.005-40.844-39.843-21.763-7.098-46.641-9.312-57.265-10.258-1.74-.155-3.116-.277-4.11-.386a22.577 22.577 0 01-1.179-.151 5.45 5.45 0 01-.238-.044c.39-.073 1.162-.113 2.2-.113 2.44 0 6.102.201 10.313.567 5.026.435 10.615 1.089 16.163 1.889 6.71.968 13.365 2.144 19.778 3.495 7.483 1.578 14.605 3.39 21.166 5.385 15.931 4.845 28.576 10.753 37.583 17.558 2.546 1.923 4.828 3.943 6.784 6.005 2.046 2.156 3.79 4.417 5.185 6.72 1.456 2.401 2.57 4.915 3.313 7.47a29.55 29.55 0 011.166 8.26 27.7 27.7 0 01-1.286 8.394c-.821 2.59-2.054 5.124-3.665 7.533-1.547 2.314-3.485 4.575-5.758 6.719-2.179 2.055-4.724 4.057-7.565 5.95-10.134 6.753-24.451 12.461-42.555 16.965-7.577 1.885-15.847 3.562-24.582 4.985a405.97 405.97 0 01-23.682 3.123 426.243 426.243 0 01-20.453 1.614c-7.013.38-11.972.459-14.897.459z" fill="#0F0D0D"/><path d="M229.808 119.312c2.923 0 7.877-.08 14.885-.459a425.924 425.924 0 0020.443-1.613 406.388 406.388 0 0023.669-3.121c8.729-1.423 16.994-3.099 24.565-4.983 18.082-4.498 32.379-10.197 42.495-16.938 2.833-1.888 5.371-3.884 7.544-5.933 2.265-2.136 4.195-4.389 5.737-6.695 1.604-2.398 2.831-4.922 3.649-7.5a27.6 27.6 0 001.281-8.36c0-2.81-.391-5.578-1.162-8.227-.74-2.545-1.85-5.048-3.299-7.44-1.39-2.294-3.129-4.547-5.167-6.696-1.95-2.056-4.226-4.07-6.765-5.988-8.99-6.792-21.616-12.69-37.525-17.529-6.555-1.993-13.671-3.804-21.148-5.38a312.769 312.769 0 00-19.765-3.493c-11.752-1.694-21.75-2.453-26.445-2.453-.346 0-.642.004-.894.011l.227.025c.986.106 2.322.225 4.014.375 10.63.947 35.525 3.162 57.311 10.267 27.175 8.863 40.954 22.312 40.954 39.975 0 16.163-16.014 30.245-47.595 41.853-25.72 9.454-55.419 14.948-71.375 17.899-3.411.631-6.105 1.13-8.075 1.538a43.089 43.089 0 00-2.337.535 9.68 9.68 0 00-.55.164c.056.008.121.015.193.023.375.04.902.072 1.565.093 1.029.033 2.23.05 3.57.05zm0 .283c-1.376 0-2.574-.018-3.584-.05-23.247-.745 127.836-12.891 127.836-62.388S244.628 7.827 250.443 6.362c.364-.092 1.17-.141 2.357-.141 17.784 0 121.627 11.09 121.627 57.49 0 47.345-114.336 55.884-144.619 55.884z" fill="#707070"/><path d="M52.716 45.479l7.752-4.692h14.008v8.024H61.012v7.684h13.464v7.956H60.468l-7.752-4.624V45.479zm46.852 15.708l-8.024-4.692H77.536v7.956H91v7.752H77.808v7.684h13.736l8.024-4.624V61.187zM61.284 67.51v4.692h13.192v7.684H60.672l-7.956-4.624V67.51h8.568zm38.284-14.076v-7.956l-8.024-4.692H77.536v8.024H91v4.624h8.568zm10.206-7.956l7.752-4.692h14.008v7.684h-13.192v8.024h13.192v7.752h-13.192v15.64h-8.568V45.479zm46.852 0l-8.024-4.692h-14.008v7.684h13.464v8.024h-13.464v7.752h13.464v15.64h8.568V45.479zm6.672 0l7.956-4.692h14.076v7.684h-13.192v23.46h12.92v7.956h-13.804l-7.956-4.624V45.479zm38.284 21.76v4.692h-12.92v7.956h13.804l7.956-4.624v-8.024h-8.84zm8.84-14.008v-7.752l-7.956-4.692H188.39v7.684h13.192v4.76h8.84zm10.849-12.444h8.568v39.1h-8.568v-39.1zm20.817 0h7.752l14.008 13.192v10.268L250.656 51.53v28.356h-8.568v-39.1zm38.284 28.084V40.787h8.568v39.1h-8.024l-14.008-13.464v-9.928l13.464 12.376zm23.777-28.084l14.008 23.46v15.64l-21.76-36.584 7.752-2.516zm31.416 0l-14.076 23.46v15.64l21.76-36.584-7.684-2.516z" fill="#000"/></svg>
